X:1
%
T:Hîn deg [2]
T:Fair Weather [2]
M:4/4
L:1/8
Q:"Andante"
R:Air
B:Nicholas Bennett – Alawon fy Ngwlad (1896, p. 26)
Z:AK/Fiddler’s Companion
K:G
G2|B2d2g4|f4 z2 (d>c)|B2B2 [F4A4]|G4 z2 G2|
c2c2 [E4c4]|(B2A2) z2g2|(f2f2) e4|d6||
d2|e2e2f4|g4 z2e2|d2B2G4|A4 z2G2|
B2d2g4|f2e2 z2 (d>c)|B2B2 A4|G6||

